svg/Pictogram/pictograms-aem-0058-general_warning_hazard.svg

<?xml version="1.0" encoding="UTF-8" standalone="no"?>
<svg height="304" id="svg2" inkscape:output_extension="org.inkscape.output.svg.inkscape" inkscape:version="0.46" sodipodi:docname="pictograms-aem-0058-general_warning_hazard-2.svg" sodipodi:version="0.32" version="1.0" width="304" xmlns="http://www.w3.org/2000/svg" xmlns:cc="http://creativecommons.org/ns#" xmlns:dc="http://purl.org/dc/elements/1.1/" xmlns:inkscape="http://www.inkscape.org/namespaces/inkscape" xmlns:rdf="http://www.w3.org/1999/02/22-rdf-syntax-ns#" xmlns:sodipodi="http://sodipodi.sourceforge.net/DTD/sodipodi-0.dtd" xmlns:svg="http://www.w3.org/2000/svg">
  <metadata>
    <rdf:RDF xmlns:cc="http://web.resource.org/cc/" xmlns:dc="http://purl.org/dc/elements/1.1/" xmlns:rdf="http://www.w3.org/1999/02/22-rdf-syntax-ns#">
      <cc:Work rdf:about="">
        <dc:title></dc:title>
        <dc:description></dc:description>
        <dc:subject>
          <rdf:Bag>
            <rdf:li></rdf:li>
          </rdf:Bag>
        </dc:subject>
        <dc:publisher>
          <cc:Agent rdf:about="http://www.unece.org/trans/danger/publi/ghs/pictograms.html">
            <dc:title>Source: UNECE GHS of Classification and Labeling of Chemicals, Source: AEM Pictorial Database, Source: AEM Pictorial Database, Source: AEM Pictorial Database, Source: AEM Pictorial Database</dc:title>
          </cc:Agent>
        </dc:publisher>
        <dc:creator>
          <cc:Agent>
            <dc:title></dc:title>
          </cc:Agent>
        </dc:creator>
        <dc:rights>
          <cc:Agent>
            <dc:title></dc:title>
          </cc:Agent>
        </dc:rights>
        <dc:date></dc:date>
        <dc:format>image/svg+xml</dc:format>
        <dc:type rdf:resource="http://purl.org/dc/dcmitype/StillImage"/>
        <cc:license rdf:resource="http://en.wikipedia.org/wiki/Public_domain"/>
        <dc:language>en</dc:language>
      </cc:Work>
    </rdf:RDF>
  </metadata>
  <sodipodi:namedview bordercolor="#666666" borderopacity="1.0" gridtolerance="10.0" guidetolerance="10.0" id="base" inkscape:current-layer="svg2" inkscape:cx="85.429126" inkscape:cy="79.223" inkscape:pageopacity="0.0" inkscape:pageshadow="2" inkscape:window-height="674" inkscape:window-width="640" inkscape:window-x="561" inkscape:window-y="261" inkscape:zoom="0.51768039" objecttolerance="10.0" pagecolor="#ffffff" showgrid="false"/>
  <defs id="defs6">
    <inkscape:perspective id="perspective22" inkscape:persp3d-origin="91.404999 : 52.815333 : 1" inkscape:vp_x="0 : 79.223 : 1" inkscape:vp_y="0 : 1000 : 0" inkscape:vp_z="182.81 : 79.223 : 1" sodipodi:type="inkscape:persp3d"/>
    <marker id="ArrowEnd" markerHeight="3" markerUnits="strokeWidth" markerWidth="4" orient="auto" refX="0" refY="5" viewBox="0 0 10 10">
      <path d="M 0,0 L 10,5 L 0,10 L 0,0 z" id="path9"/>
    </marker>
    <marker id="ArrowStart" markerHeight="3" markerUnits="strokeWidth" markerWidth="4" orient="auto" refX="10" refY="5" viewBox="0 0 10 10">
      <path d="M 10,0 L 0,5 L 10,10 L 10,0 z" id="path12"/>
    </marker>
  </defs>
  <g id="g2958" transform="matrix(1.59631,0,0,1.6214914,6.6746736,23.1432)">
    <path d="M 80.5767,6.98799 C 70.7916,23.828 46.6197,65.9644 27.1978,99.8238 L 1.5025,144.582 C -0.810006,148.589 0.0532752,151.757 0.772026,153.289 C 2.22906,156.39 5.33843,157.937 7.76031,158.355 L 8.24859,158.437 L 174.069,158.441 L 173.722,158.429 C 176.323,158.586 179.776,157.664 181.663,154.609 C 182.87,152.648 183.737,149.312 180.991,144.57 L 129.651,56.261 L 101.241,7.414 C 97.6822,1.289 93.5533,0 90.7174,0 C 87.9478,0 83.94,1.211 80.5806,6.98799 L 80.5767,6.98799 z M 37.3072,105.625 C 56.7252,71.7769 80.8853,29.656 90.6548,12.843 C 90.6978,12.769 90.733,12.726 90.772,12.66 C 90.897,12.847 91.0181,13.019 91.1588,13.265 L 119.577,62.1207 C 119.577,62.1207 164.917,140.117 168.796,146.785 C 159.218,146.785 22.6588,146.781 13.6783,146.781 C 19.7838,136.148 37.3072,105.625 37.3072,105.625" id="path15" style="fill:#000000;fill-rule:evenodd;stroke:none"/>
    <path d="M 91.4127,138.332 C 96.4361,138.332 100.507,134.183 100.507,129.066 C 100.507,123.953 96.4361,119.804 91.4127,119.804 C 86.3814,119.804 82.3111,123.953 82.3111,129.066 C 82.3111,134.183 86.3814,138.332 91.4127,138.332" id="path17" style="fill:#000000;fill-rule:evenodd;stroke:none"/>
    <path d="M 91.4127,47.562 C 98.6705,47.562 105.339,54.32 104.554,60.9449 L 98.3384,107.546 C 97.733,111.617 95.2369,114.597 91.4127,114.597 C 87.5884,114.597 85.0845,111.617 84.4869,107.546 L 78.2681,60.9449 C 77.4791,54.32 84.1509,47.562 91.4127,47.562" id="path19" style="fill:#000000;fill-rule:evenodd;stroke:none"/>
  </g>
</svg>

<svg xmlns="http://www.w3.org/2000/svg" viewBox="0 0 304 304"><g transform="matrix(1.59631 0 0 1.62149 6.675 23.14)" fill-rule="evenodd"><path d="m80.58 6.988c-9.785 16.84-33.957 58.976-53.38 92.84l-25.695 44.758c-2.313 4.01-1.449 7.175-.73 8.707 1.457 3.101 4.566 4.648 6.988 5.066l.488.082 165.82.004-.347-.012c2.601.157 6.05-.765 7.941-3.82 1.207-1.961 2.074-5.297-.672-10.04l-51.34-88.31-28.41-48.847c-3.559-6.125-7.688-7.414-10.524-7.414-2.77 0-6.777 1.211-10.137 6.988h-.004m-43.27 98.64c19.418-33.848 43.578-75.969 53.35-92.78.043-.074.078-.117.117-.183.125.187.246.359.387.605l28.418 48.856c0 0 45.34 77.996 49.22 84.66-9.578 0-146.14-.004-155.12-.004 6.105-10.633 23.629-41.16 23.629-41.16"/><path d="m91.41 138.33c5.02 0 9.09-4.149 9.09-9.266 0-5.113-4.071-9.262-9.09-9.262-5.03 0-9.102 4.149-9.102 9.262 0 5.117 4.07 9.266 9.102 9.266"/><path d="m91.41 47.562c7.258 0 13.926 6.758 13.14 13.383l-6.216 46.601c-.605 4.071-3.101 7.05-6.926 7.05-3.824 0-6.328-2.98-6.926-7.05l-6.219-46.601c-.789-6.625 5.883-13.383 13.145-13.383"/></g></svg>
